X:1
T: Union Jigg
N:
C:
S:
A:
O:
R:
M:6/8
K:Am
I:speed 150
%W: A1
% voice 1 (1 lines, 41 notes)
K:Am
M:6/8
L:1/16
a ^g |a4 e2 e2 ^f2 ^g2 a4 A2 A2 B2 c2 d4 c2 B3 c B A ^G6 E4 a2 |a4 e2 e2 ^f2 ^g2 a4 A2 A2 B2 c2 B2 e2 d2 c3 B A2 A6 A4 a ^g |
%W: A2
% voice 1 (1 lines, 37 notes)
a4 e2 e2 ^f2 ^g2 a4 A2 A2 B2 c2 d4 c2 B3 c B A ^G6 E4 a2 |a4 e2 e2 ^f2 ^g2 a4 A2 A2 B2 c2 B2 e2 d2 c3 B A2 A6 A4
%W: B1
% voice 1 (1 lines, 39 notes)
c'4 |g2 g3 a b2 c'4 c2 c3 d e2 f4 e2 d3 e d c B6 G4 g2 g2 f2 |e2 f2 g2 a2 g2 c'2 b2 a2 g2 f2 e2 d2 c2 c4 B2 c6 c4 e2
%W: B2
% voice 1 (1 lines, 38 notes)
e2 c2 |c2 e2 c2 c2 g4 e2 e4 g2 a3 b c'2 b2 c'2 a2 ^g6 e4 a b c'2 e2 |c'2 b2 e2 b2 a2 e2 a2 ^g4 a2 e2 d2 c2 B4 A2 A6 A4 ||
